public/assets/home_cta/css.svg

<svg fill="none" height="79" viewBox="0 0 56 79" width="56" xmlns="http://www.w3.org/2000/svg" xmlns:xlink="http://www.w3.org/1999/xlink"><mask id="a" height="11" maskUnits="userSpaceOnUse" width="10" x="23" y="0"><path d="m23.6184 0h8.8492v10.3241h-8.8492z" fill="#fff"/></mask><mask id="b" height="11" maskUnits="userSpaceOnUse" width="9" x="33" y="0"><path d="m33.1396 0h8.8289v10.3261h-8.8289z" fill="#fff"/></mask><mask id="c" height="11" maskUnits="userSpaceOnUse" width="10" x="12" y="0"><path d="m12.9388 0h8.8452v10.2179h-8.8431z" fill="#fff"/></mask><mask id="d" height="64" maskUnits="userSpaceOnUse" width="56" x="0" y="15"><path d="m0 15.2411h55.8572v63.346h-55.8572z" fill="#fff"/></mask><g mask="url(#a)"><path clip-rule="evenodd" d="m32.4166-.00009347c.0163.07762487.047.15524947.047.23287447.004.855919.002 1.711829 0 2.567749 0 .04903-.0123.09805-.0246.18385-.5556.02655-1.1112.00817-1.6648.01021-.5679.00409-1.1378 0-1.7057 0h-1.6935v.55972h5.0681v6.76969h-8.8043v-3.08047h5.0763v-.56584h-5.0701c-.0123-.11644-.0266-.20224-.0266-.28599v-6.105807c0-.09601.0409-.1920196.0613-.28802923h8.7369z" fill="#fff" fill-rule="evenodd"/></g><g mask="url(#b)"><path clip-rule="evenodd" d="m41.946 0c.0082.249217.0204.502519.0204.753778.0041.623042.0021 1.248122.0021 1.873212v.36565h-5.0947v.56789h5.0742v6.76557h-8.7859v-3.0743c.8376-.03269 1.6751-.01022 2.5126-.0143.8437-.00409 1.6853 0 2.5535 0v-.56993h-5.062c-.0123-.08784-.0266-.14504-.0266-.20428v-6.283527c0-.061283.0041-.120523.0041-.179763h8.8043z" fill="#fff" fill-rule="evenodd"/></g><g mask="url(#c)"><path clip-rule="evenodd" d="m21.7126 0c.0205.0735393.0613.149121.0634.224704.0041 1.017296.002 2.034586 0 3.051886 0 .03881-.0123.07762-.0286.15729-.5516.0143-1.1052.00613-1.6587.00613h-3.3726c-.0695.22879-.0899 2.86395-.0246 3.32765h5.0171c.0817.24105.1041 3.01103.0388 3.39504-.2349.0593-8.2119.0817-8.7839.0205-.0061-.0879-.0225-.18389-.0225-.2799v-9.6071c0-.098052.0246-.1981476.0368-.2962z" fill="#fff" fill-rule="evenodd"/></g><g mask="url(#d)"><path clip-rule="evenodd" d="m45.4453 26.8703h-.5475l-28.3678.0123h-5.6666c-.094 0-.19-.0041-.2839.0041-.0695.0041-.1369.0286-.2248.049l.6333 6.9658c.2043.0061.3718.0184.5372.0184l25.6755.0122c.094 0 .19-.002.286.0021.0592.0041.1205.0204.1736.0265.0654.284-.4882 6.7207-.6128 7.0619h-.3575l-9.4355.0122h-15.1021c-.1634 0-.331.0164-.5393.0266l.6292 7.0107c.2124.0082.3881.0204.5638.0204l23.2057.0164c.096 0 .19 0 .286.0041.0511.0041.1001.0184.1736.0327 0 .0817.0062.1532 0 .2247-.1144 1.2583-.2349 2.5187-.3472 3.7791l-.4004 4.6023c-.0327.3697-.0368.3718-.3881.4658-2.3901.6495-4.7801 1.2951-7.1701 1.9467-.192.0534-.3951.052-.5863-.0041-2.3798-.6475-4.7637-1.291-7.1456-1.9345-.1001-.0265-.1961-.0633-.3146-.1021l-.5004-5.5277c-.3922-.0879-6.7861-.0715-7.0353.0143 0 .1082-.0082.2247 0 .337.0286.3269.0654.6496.094.9744.1144 1.3135.2247 2.627.3411 3.9426l.4903 5.4174c.0286.2859.0265.2859.2941.3676l.1532.0409c4.5002 1.2522 9.0025 2.5024 13.4986 3.7607.3064.0858.5863.0899.8947.0041 4.4675-1.2461 8.9371-2.4819 13.4066-3.7199.5557-.1532.5455-.1552.5924-.7394.0879-1.0725.1839-2.1429.2799-3.2153.096-1.0623.1941-2.1204.288-3.1827.094-1.0601.1839-2.1224.2799-3.1826.096-1.0622.1961-2.1224.2901-3.1826l.2778-3.1847c.0939-1.0601.1961-2.1203.29-3.1805l.3391-3.8465c.1185-1.3013.2411-2.6046.3555-3.9078.1164-1.3013.2247-2.6046.3411-3.9078.1144-1.2931.237-2.5841.3534-3.8752.0123-.1348.0021-.2696.0021-.4575m10.3976-11.5825c.0061.0552.0184.0981.0143.1369l-.2758 3.0233-.2144 2.4309-.2942 3.2745-.2717 3.058-.3003 3.3399-.2737 3.1193-.2921 3.248-.2104 2.3614-.2983 3.3093-.2737 3.0887-.2962 3.3092-.2717 3.056-.3003 3.3399c-.0939 1.05-.1838 2.102-.2757 3.152l-.2922 3.2132-.2716 3.0887-.2962 3.2766-.2738 3.0886-.0694.8192c-.0205.2574-.0205.2614-.2901.335l-3.3195.9274c-6.2978 1.7466-12.5977 3.4911-18.8935 5.2438-.2713.0776-.5592.0755-.8293-.0062-7.3437-2.0427-14.6875-4.0773-22.03323-6.116-.04903-.0122-.1001-.0368-.15117-.0449-.16137-.0245-.2247-.1124-.239-.2778-.05924-.7457-.12665-1.4913-.19406-2.2389-.09397-1.0622-.19406-2.1204-.28803-3.1826l-.21245-2.3941-.29824-3.3093-.20836-2.3635-.2962-3.3093-.27782-3.1499c-.09601-1.0827-.1961-2.1653-.29415-3.2459l-.21041-2.3962-.29211-3.2766-.27578-3.1193-.2962-3.2786-.27577-3.1193c-.09601-1.0949-.1961-2.1878-.29416-3.2786l-.27373-3.0907-.296195-3.3093-.277816-3.1499-.288029-3.2133-.20019-2.2368c0-.0409.0102138-.0817.0142993-.1226.2349177-.0653 55.4201007-.0817 55.8286007-.0143" fill="#fff" fill-rule="evenodd"/></g></svg>

<svg width="56" height="79" viewBox="0 0 56 79" fill="none" xmlns="http://www.w3.org/2000/svg">
<mask id="mask0_306_2" style="mask-type:alpha" maskUnits="userSpaceOnUse" x="23" y="0" width="10" height="11">
<path d="M23.6184 0H32.4676V10.3241H23.6184V0Z" fill="white"/>
</mask>
<g mask="url(#mask0_306_2)">
<path fill-rule="evenodd" clip-rule="evenodd" d="M32.4166 -9.34748e-05C32.4329 0.0775314 32.4636 0.155156 32.4636 0.232781C32.4676 1.0887 32.4656 1.94461 32.4636 2.80053C32.4636 2.84956 32.4513 2.89858 32.439 2.98438C31.8834 3.01093 31.3278 2.99255 30.7742 2.99459C30.2063 2.99868 29.6364 2.99459 29.0685 2.99459H27.375V3.55431H32.4431V10.324H23.6388V7.24353H28.7151V6.67769H23.645C23.6327 6.56125 23.6184 6.47545 23.6184 6.3917V0.285893C23.6184 0.189883 23.6593 0.0938734 23.6797 -0.00213623H32.4166V-9.34748e-05Z" fill="white"/>
</g>
<mask id="mask1_306_2" style="mask-type:alpha" maskUnits="userSpaceOnUse" x="33" y="0" width="9" height="11">
<path d="M33.1396 0H41.9685V10.3261H33.1396V0Z" fill="white"/>
</mask>
<g mask="url(#mask1_306_2)">
<path fill-rule="evenodd" clip-rule="evenodd" d="M41.946 0C41.9542 0.249217 41.9664 0.502519 41.9664 0.753778C41.9705 1.37682 41.9685 2.0019 41.9685 2.62699V2.99264H36.8738V3.56053H41.948V10.3261H33.1621V7.2518C33.9997 7.21911 34.8372 7.24158 35.6747 7.2375C36.5184 7.23341 37.36 7.2375 38.2282 7.2375V6.66757H33.1662C33.1539 6.57973 33.1396 6.52253 33.1396 6.46329V0.179763C33.1396 0.11848 33.1437 0.05924 33.1437 0H41.948H41.946Z" fill="white"/>
</g>
<mask id="mask2_306_2" style="mask-type:alpha" maskUnits="userSpaceOnUse" x="12" y="0" width="10" height="11">
<path d="M12.9388 0H21.784V10.2179H12.9409L12.9388 0Z" fill="white"/>
</mask>
<g mask="url(#mask2_306_2)">
<path fill-rule="evenodd" clip-rule="evenodd" d="M21.7126 0C21.7331 0.0735393 21.7739 0.149121 21.776 0.224704C21.7801 1.242 21.778 2.25929 21.776 3.27659C21.776 3.3154 21.7637 3.35421 21.7474 3.43388C21.1958 3.44818 20.6422 3.44001 20.0887 3.44001H16.7161C16.6466 3.6688 16.6262 6.30396 16.6915 6.76766H21.7086C21.7903 7.00871 21.8127 9.77869 21.7474 10.1627C21.5125 10.222 13.5355 10.2444 12.9635 10.1832C12.9574 10.0953 12.941 9.99931 12.941 9.9033V0.2962C12.941 0.198148 12.9656 0.0980524 12.9778 0H21.7126V0Z" fill="white"/>
</g>
<mask id="mask3_306_2" style="mask-type:alpha" maskUnits="userSpaceOnUse" x="0" y="15" width="56" height="64">
<path d="M0 15.2411H55.8572V78.5871H0V15.2411Z" fill="white"/>
</mask>
<g mask="url(#mask3_306_2)">
<path fill-rule="evenodd" clip-rule="evenodd" d="M45.4453 26.8703H44.8978L16.53 26.8826H10.8634C10.7694 26.8826 10.6734 26.8785 10.5795 26.8867C10.51 26.8908 10.4426 26.9153 10.3547 26.9357L10.988 33.9015C11.1923 33.9076 11.3598 33.9199 11.5252 33.9199L37.2007 33.9321C37.2947 33.9321 37.3907 33.9301 37.4867 33.9342C37.5459 33.9383 37.6072 33.9546 37.6603 33.9607C37.7257 34.2447 37.1721 40.6814 37.0475 41.0226H36.69L27.2545 41.0348H12.1524C11.989 41.0348 11.8214 41.0512 11.6131 41.0614L12.2423 48.0721C12.4547 48.0803 12.6304 48.0925 12.8061 48.0925L36.0118 48.1089C36.1078 48.1089 36.2018 48.1089 36.2978 48.113C36.3489 48.1171 36.3979 48.1314 36.4714 48.1457C36.4714 48.2274 36.4776 48.2989 36.4714 48.3704C36.357 49.6287 36.2365 50.8891 36.1242 52.1495L35.7238 56.7518C35.6911 57.1215 35.687 57.1236 35.3357 57.2176C32.9456 57.8671 30.5556 58.5127 28.1656 59.1643C27.9736 59.2177 27.7705 59.2163 27.5793 59.1602C25.1995 58.5127 22.8156 57.8692 20.4337 57.2257C20.3336 57.1992 20.2376 57.1624 20.1191 57.1236L19.6187 51.5959C19.2265 51.508 12.8326 51.5244 12.5834 51.6102C12.5834 51.7184 12.5752 51.8349 12.5834 51.9472C12.612 52.2741 12.6488 52.5968 12.6774 52.9216C12.7918 54.2351 12.9021 55.5486 13.0185 56.8642L13.5088 62.2816C13.5374 62.5675 13.5353 62.5675 13.8029 62.6492L13.9561 62.6901C18.4563 63.9423 22.9586 65.1925 27.4547 66.4508C27.7611 66.5366 28.041 66.5407 28.3494 66.4549C32.8169 65.2088 37.2865 63.973 41.756 62.735C42.3117 62.5818 42.3015 62.5798 42.3484 61.9956C42.4363 60.9231 42.5323 59.8527 42.6283 58.7803C42.7243 57.718 42.8224 56.6599 42.9163 55.5976C43.0103 54.5375 43.1002 53.4752 43.1962 52.415C43.2922 51.3528 43.3923 50.2926 43.4863 49.2324L43.7641 46.0477C43.858 44.9876 43.9602 43.9274 44.0541 42.8672L44.3932 39.0207C44.5117 37.7194 44.6343 36.4161 44.7487 35.1129C44.8651 33.8116 44.9734 32.5083 45.0898 31.2051C45.2042 29.912 45.3268 28.621 45.4432 27.3299C45.4555 27.1951 45.4453 27.0603 45.4453 26.8724M55.8429 15.2899C55.849 15.3451 55.8613 15.388 55.8572 15.4268L55.5814 18.4501L55.367 20.881L55.0728 24.1555L54.8011 27.2135L54.5008 30.5534L54.2271 33.6727L53.935 36.9207L53.7246 39.2821L53.4263 42.5914L53.1526 45.6801L52.8564 48.9893L52.5847 52.0453L52.2844 55.3852C52.1905 56.4352 52.1006 57.4872 52.0087 58.5372L51.7165 61.7504L51.4449 64.8391L51.1487 68.1157L50.8749 71.2043L50.8055 72.0235C50.785 72.2809 50.785 72.2849 50.5154 72.3585L47.1959 73.2859C40.8981 75.0325 34.5982 76.777 28.3024 78.5297C28.0311 78.6073 27.7432 78.6052 27.4731 78.5235C20.1294 76.4808 12.7856 74.4462 5.43987 72.4075C5.39084 72.3953 5.33977 72.3707 5.2887 72.3626C5.12733 72.3381 5.064 72.2502 5.0497 72.0848C4.99046 71.3391 4.92305 70.5935 4.85564 69.8459C4.76167 68.7837 4.66158 67.7255 4.56761 66.6633L4.35516 64.2692L4.05692 60.9599L3.84856 58.5964L3.55236 55.2871L3.27454 52.1372C3.17853 51.0545 3.07844 49.9719 2.98039 48.8913L2.76998 46.4951L2.47787 43.2185L2.20209 40.0992L1.90589 36.8206L1.63012 33.7013C1.53411 32.6064 1.43402 31.5135 1.33596 30.4227L1.06223 27.332L0.766035 24.0227L0.488219 20.8728L0.20019 17.6595L0 15.4227C0 15.3818 0.0102138 15.341 0.0142993 15.3001C0.249217 15.2348 55.4344 15.2184 55.8429 15.2858" fill="white"/>
</g>
</svg>
